symbols/web/nest_connect/materialsymbolsoutlined/nest_connect_wght500_48px.svg

<svg xmlns="http://www.w3.org/2000/svg" height="48" width="48"><path d="M24 38.7q-4 0-6.85-2.85Q14.3 33 14.3 29V19q0-4.05 2.85-6.875T24 9.3q4.05 0 6.875 2.825T33.7 19v10q0 4-2.825 6.85Q28.05 38.7 24 38.7Zm0-3.4q2.65 0 4.475-1.85Q30.3 31.6 30.3 29V19q0-2.65-1.825-4.475Q26.65 12.7 24 12.7q-2.6 0-4.45 1.825T17.7 19v10q0 2.6 1.85 4.45T24 35.3Zm-14.9 11q-1.4 0-2.4-1t-1-2.4V5.1q0-1.4 1-2.4t2.4-1h29.8q1.4 0 2.4 1t1 2.4v37.8q0 1.4-1 2.4t-2.4 1Zm0-3.4h29.8V5.1H9.1v37.8ZM24 18.7q-.6 0-1.05-.45-.45-.45-.45-1.05 0-.65.45-1.075.45-.425 1.1-.425.6 0 1.025.425.425.425.425 1.075 0 .6-.425 1.05-.425.45-1.075.45Z"/></svg>

<svg xmlns="http://www.w3.org/2000/svg" height="48" width="48"><path d="M24 38.7Q20 38.7 17.15 35.85Q14.3 33 14.3 29V19Q14.3 14.95 17.15 12.125Q20 9.3 24 9.3Q28.05 9.3 30.875 12.125Q33.7 14.95 33.7 19V29Q33.7 33 30.875 35.85Q28.05 38.7 24 38.7ZM24 35.3Q26.65 35.3 28.475 33.45Q30.3 31.6 30.3 29V19Q30.3 16.35 28.475 14.525Q26.65 12.7 24 12.7Q21.4 12.7 19.55 14.525Q17.7 16.35 17.7 19V29Q17.7 31.6 19.55 33.45Q21.4 35.3 24 35.3ZM9.1 46.3Q7.7 46.3 6.7 45.3Q5.7 44.3 5.7 42.9V5.1Q5.7 3.7 6.7 2.7Q7.7 1.7 9.1 1.7H38.9Q40.3 1.7 41.3 2.7Q42.3 3.7 42.3 5.1V42.9Q42.3 44.3 41.3 45.3Q40.3 46.3 38.9 46.3ZM9.1 42.9H38.9Q38.9 42.9 38.9 42.9Q38.9 42.9 38.9 42.9V5.1Q38.9 5.1 38.9 5.1Q38.9 5.1 38.9 5.1H9.1Q9.1 5.1 9.1 5.1Q9.1 5.1 9.1 5.1V42.9Q9.1 42.9 9.1 42.9Q9.1 42.9 9.1 42.9ZM24 18.7Q23.4 18.7 22.95 18.25Q22.5 17.8 22.5 17.2Q22.5 16.55 22.95 16.125Q23.4 15.7 24.05 15.7Q24.65 15.7 25.075 16.125Q25.5 16.55 25.5 17.2Q25.5 17.8 25.075 18.25Q24.65 18.7 24 18.7Z"/></svg>
